X: 39072
T: Swedish Scales
R: reel
M: 4/4
K: Dmajor
|:D2 E F2 G A2|BA G2 A2 BA|G2 F2 E D3:|
|:G2 A B2 c d2|ed c2 d2 ed|c2 B2 A G3:|
|:D2 E F2 G A2|BA G2 A2 BA|G2 F2 E D3:|
g2 a b2 c' b2|ag f2 g2 ag|f2 e2 d e3|
g2 a b2 c' b2|ag f2 g2 ag|f2 e2 G D3|
D2 E F2 G A2|BA G2 A2 BA|G2 F2 E D3|
g2 a b2 c' b2|ag f2 g2 ag|f2 e2 d e3|
g2 a b2 c' b2|ag f2 g2 ag|f2 e2 G D3|

